X:1
T:Missa brevis super Vuinken ghy syt grone
T:Missa brevis super Vuinken ghy syt grone
T:Johann Stahel
C:Johann Stahel
%%score [ 1 2 3 4 ]
L:1/8
Q:1/4=120
M:2/2
K:C
V:1 treble nm="Soprano"
V:2 treble nm="Alto"
V:3 treble-8 nm="Tenor"
V:4 bass nm="Bass"
V:1
 z8 | G4 A2 B2 | c4 z4 | c4 d4 | e2 c2 d2 e2- | ed c4 B2 | c4 z2 B2 | c4 A4 | B4 z2 d2 | %9
w: |Ky- ri- *|e,|[Ky- *||* * * ri-|e, Ky-|ri- e|,] e-|
 e3 d c2 B2 | c2 d4 c2 | B2 c4 B2 | c8 || z8 | z8 | z8 | z8 | c4 d4- | d2 cB A4 | B3 c d4- | d8 | %21
w: ley- * * *|||son.|||||Chri- *||* * ste|_|
 z8 | A4 A4 | z2 d3 c BA | B4 B4 | z8 | z2 G2 A3 G | G2 F2 G4 | z8 | z2 G2 A3 G | G2"^#" F2 G4- | %31
w: |||||Chri- * *|* * ste,||e- ley- *|* * son.|
 G8-"^b" | G8 || z8 | z4 d4 | c2 B4 AG | A2 d4 c2 | d4 z2 d2 | d4 e4 | d4 z2 G2- | G2 FE F3 G | %41
w: _|||Ky-||* * ri-|e,- [Ky-|ri- *|e, Ky-||
 E4 D2 A2- | AG G4 F2 | G4 z2 c2- | c2 BA B2 c2 | A4 z2 c2- | c2"^#" BA B2 c2 | %47
w: |* * * ri-|e, Ky-|* * * * ri-|e, Ky-|* * * * ri-|
 A4"^-natural" G2 c2 | d2 e4"^#" dc | B2 c4 B2 | c8 |] %51
w: e,] e- ley-|||son.|
V:2
 z8 | G3 E F2 D2 | C4 z2 G2- | G2 A4 GF | E4 F2 G2 | E2 F2 D2 G2- | G2 F2 G3 F | E3 D C2 B,A, | %8
w: |Ky- * * ri-|e, [Ky-||||||
 G,2 G2 A2 GF | G2 A2 E2 F2 | G2 A3 G G2- | G2 F2 G4- | G8 || z8 | z8 | z8 | z8 | z8 | z4 F4 | %19
w: e,] e- * * *|||* ley- son|_||||||Chri-|
 G6 FE | D3 E F4 | z2 D2 E4 | F4 z2 F2- | F2 F2 F4 | G3 F E2 D2 | E2 C4 B,2 | C4 z4 | z4 z2 C2 | %28
w: |* * ste,|[Chri- ste|, Chri-|* ste, Chri-|||ste,|Chri-|
 D3 C C2 B,2 | C2 E2 F3 E | C2 D2 B,A,B,C | D2 E4 DC | D8 || z8 | z8 | z2 G4 FE | F2 G2 E4 | D8 | %38
w: * * ste,] e-|ley- * * *|||son.|||Ky- * *|* * ri-|e,|
 z2 G4 FE | F2 G2 C2 B,2 | G,2 A,4 G,F, | G,3 A, B,2 C2- | CB,A,G, A,4 | G,4 G4 | z2 F4 EC | %45
w: [Ky- * *||||* * * * ri-|e, _|Ky- * *|
 E2 F2 D2 G2- | G2 F2 G4 | z2 F2 E2 A2- | AG G4 F2 | G8- | G8 |] %51
w: |* ri- e,]|e- ley- *||son.|_|
V:3
 G4 A2 B2 | c4 z4 | z2 c2 d2 e2- | ed c4 B2 | c4 z2 G2 | A4 G4 | z2 c2 d4 | c4 f4 | e2 d3 c BA | %9
w: Ky- ri- *|e,|Ky- * *|* * * ri-|e, Ky-|ri- e,|Ky- *||* * * ri- *|
 G2 c4 d2 | e2 f4 e2 | d2 c2 d4 | c8 || c4 d4- | d2 cB A4 | B3 c d4- | d4 z2 c2- | cBAG A4 | %18
w: e, e- *||* * ley-|son.|Chri- *||* * ste,|_ [Chri-||
 A4 z4 | z8 | z4 A4- | A2 B2 c4 | d4 z4 | A4 d4 | d4 z4 | z8 | z2 G2 c3 B | G2 A2 G2 G2 | %28
w: ste,||Chri-|* * ste,|_|Chri- *|ste,||Chr- * *|* * ste, Chri-|
 A3 G E2 F2 | G2 G2 c3 B | G2 A2 G4- | G8- | G8 || d6 cB | c2 d2 B4 | A2 d4 c2 | d2 B2 A4 | %37
w: |ste,] e- ley- *|* * son.|_||Ky- * *|||* ri- e,|
 z2 B4 AG | A2 B2 c4 | B4 A2 d2- | dc c4 B2 | c4 d2 e2 | c4 z2 c2- | c2 BA B2 c2 | A4 z2 c2- | %45
w: [Ky- * *||||* * ri-|e, Ky-|* * * * ri-|e, Ky-|
 c2 BA B2 c2 | A4 G4 | c8 | B4 c4 | d8 | c8 |] %51
w: |ri- e,]|e-|ley- *||son.|
V:4
 G,3 E, F,2 D,2 | C,4 z2 G,2 | A,3 G, F,2 E,D, | E,2 F,2 D,4 | C,4 z4 | z4 z2 B,,2 | A,4 G,4 | %7
w: Ky- * * ri-|e, [Ky-||* * ri-|e,|Ky-|ri- e,|
 z2 A,4 G,F, | G,4 F,4 | E,2 A,4 G,F, | E,2 D,4 E,F, | G,2 A,2 G,4 | C,8 || z8 | z4 F,4 | %15
w: Ky- * *|* ri-|e,] e- * *||* * ley-|son.||Chri-|
 G,6 F,E, | D,3 E, F,4 | z2 F,3 E,D,C, | D,4 D,4 | z8 | D,6 E,2 | F,2 G,2 E,4 | D,8- | D,4 z2 D,2 | %24
w: |* * ste,|[Chri- * * *|* ste,||Chri- *||ste,|_ Chri-|
 G,6 F,2 | E,2 F,2 D,4 | C,4 z4 | z4 z2 C,2 | F,3 E, C,2 D,2 | C,2 G,2 F,3 G, | E,2 D,2 G,,3 A,, | %31
w: ||ste|Chri-|||* * ste,] e-|
 B,,2 C,4 B,,A,, | G,,8 || z8 | z2 G,4 F,E, | F,2 G,2 E,4 | D,4 z4 | G,6 F,E, | F,2 G,2 C,4 | %39
w: ley- * * *|son.||Ky- * *|* * ri-|e,|[Ky- * *||
 D,3 E, F,2 G,2 | E,2 F,2 D,4 | C,4 z4 | z8 | z2 G,4 F,E, | F,4 G,2 A,2- | A,2 G,F, G,2 E,2 | %46
w: |* * ri-|e,||Ky- * *||* * * * ri-|
 D,4 z2 E,2 | F,4 C,4 | G,4 A,4 | G,8 | C,8 |] %51
w: e,] e-|ley- *|||son.|

